X: 32
T: Drowsy Maggie
Z: Bodhránboy854
S: https://thesession.org/tunes/27#setting51446
R: reel
M: 4/4
L: 1/8
K: Edor
|:E2BE dEBE|E2BE AFDF|E2BE dEBE|1 BABc dAFD:|2 BABc dAFA||
|:d2fd c2ec|defg afge|d2fdc2ec|BABc dAFA|
d2fd c2ec|defg a2fg|afge fdec|1 BABc dAFA:|2 BABc dAFD||

